newicons/shuffles.svg

<?xml version="1.0" encoding="UTF-8" standalone="no"?>
<svg
   viewBox="0 0 48 48"
   version="1.1"
   id="svg1"
   sodipodi:docname="shuffles.svg"
   inkscape:version="1.3.2 (091e20ef0f, 2023-11-25)"
   xml:space="preserve"
   xmlns:inkscape="http://www.inkscape.org/namespaces/inkscape"
   xmlns:sodipodi="http://sodipodi.sourceforge.net/DTD/sodipodi-0.dtd"
   xmlns="http://www.w3.org/2000/svg"
   xmlns:svg="http://www.w3.org/2000/svg"><sodipodi:namedview
     id="namedview1"
     pagecolor="#505050"
     bordercolor="#eeeeee"
     borderopacity="1"
     inkscape:showpageshadow="0"
     inkscape:pageopacity="0"
     inkscape:pagecheckerboard="0"
     inkscape:deskcolor="#505050"
     inkscape:zoom="8.90625"
     inkscape:cx="-4.2105263"
     inkscape:cy="29.249123"
     inkscape:window-width="1918"
     inkscape:window-height="1053"
     inkscape:window-x="0"
     inkscape:window-y="0"
     inkscape:window-maximized="1"
     inkscape:current-layer="svg1" /><defs
     id="defs1"><style
       id="style1">.a { fill:none;stroke:#fff;stroke-linecap:round;stroke-linejoin:round; }
</style></defs><path
     id="rect1"
     style="fill:none;fill-opacity:0;stroke-opacity:1;stroke:#ffffff;stroke-linecap:round;stroke-linejoin:round;"
     d="M 39.39002,5.4999942 6.2287363,9.3615989 7.3071716,18.614014 V 29.340158 H 26.663518 L 7.3385356,31.590549 8.6099796,42.500006 41.771264,38.6384 40.690416,29.340158 40.692886,18.35593 H 23.946923 l 16.714541,-1.946481 z"
     sodipodi:nodetypes="ccccccccccccc" /></svg>

<?xml version="1.0" encoding="UTF-8"?><svg id="a" xmlns="http://www.w3.org/2000/svg" viewBox="0 0 48 48"><defs><style>.c{fill:none;stroke:#fff;stroke-linecap:round;stroke-linejoin:round;}</style></defs><path id="b" class="c" d="M39.39,5.5L6.2287,9.3616l1.0784,9.2524v10.7261h19.3563l-19.325,2.2504,1.2714,10.9095,33.1613-3.8616-1.0808-9.2982.0025-10.9842h-16.746l16.7145-1.9465-1.2714-10.9095Z"/></svg>
